X:50
T:T030C- The Tither Morn
S:Scots Musical Museum, #345
Q:1/4=120
L:1/4
M:C
K:F
C/|F/ A/ A/ c/ d3/4 e/4 f/ d/|c/ A/ A/ F/ G F/ D/|\
F/ A/ A/ c/ d3/4 e/4 f3/4 d/4|c/ A/ (B/4A/4) G/4F/4 ~G F/::c/|\
f3/4 g/4 f/ e/ d3/4 c/4 A/ c/{d/e/}|f/ e/ d/ c/ d c/ (d/4e/4)|\
f3/4 e/4 d/ c/ d/ e/ f/{g/a/}{g/f/e/}d/|\
c3/4 A/4 (B/4A/4) G/4F/4 {A/}~G F/|]

